X:1
T:Scions, Scions, Scions du bois
C:Traditionnel
Z:All Rights Reserved
L:1/8
M:2/4
K:F
V:1 treble nm="Piano"
%%MIDI program 0
V:1
 F2 F2 | ED C2 | FF GG | FG AF | F2 F2 | ED C2 | FF GB | AG F2 | FF F2 | FF G2 | F2 G2 | c2 F2 |] %12
w: Scions, scions,|scions du bois|Pour la mè- re,|pour la mè- re,|Scions, scions,|scions du bois|Pour la mè- re|Ni- co- las.|Qu'a cas- sé|ses sa- bots|En mille|mor- ceaux-|

